app/src/assets/icons/website/presentation-1.svg

<svg xmlns="http://www.w3.org/2000/svg" viewBox="0 0 24 24" width="512" height="512"><path d="M3 18h4.382l-1.277 2.553a1 1 0 001.79.894L9.618 18H11v2a1 1 0 002 0v-2h1.382l1.723 3.447a1 1 0 101.79-.894L16.618 18H21a1 1 0 001-1V5a1 1 0 00-1-1h-8V3a1 1 0 00-2 0v1H3a1 1 0 00-1 1v12a1 1 0 001 1zM4 6h16v10H4z"/><path d="M14.382 8.077A1.01 1.01 0 0014 8h-4a1 1 0 000 2h1.586l-2.293 2.293a1 1 0 101.414 1.414L13 11.414V13a1 1 0 002 0V9a1 1 0 00-.618-.923z"/></svg>

<?xml version="1.0"?>
<svg xmlns="http://www.w3.org/2000/svg" viewBox="0 0 24 24" width="512" height="512"><path d="M3,18H7.382L6.105,20.553a1,1,0,0,0,1.79.894L9.618,18H11v2a1,1,0,0,0,2,0V18h1.382l1.723,3.447a1,1,0,1,0,1.79-.894L16.618,18H21a1,1,0,0,0,1-1V5a1,1,0,0,0-1-1H13V3a1,1,0,0,0-2,0V4H3A1,1,0,0,0,2,5V17A1,1,0,0,0,3,18ZM4,6H20V16H4Z"/><path d="M14.382,8.077A1.01,1.01,0,0,0,14,8H10a1,1,0,0,0,0,2h1.586L9.293,12.293a1,1,0,1,0,1.414,1.414L13,11.414V13a1,1,0,0,0,2,0V9a1,1,0,0,0-.618-.923Z"/></svg>
